!!!COM:	Martini, Johannes
!!!CDT:	~1440///-~1497//
!!!OTL:	Domine non est exaltatum
!!!AGN:	Motet
!!!SCT:	Mar2031
!!!SCA:	Mar2031
!!!voices:	2
**kern	**kern
*staff2	*staff1
*Ivox	*Ivox
*I"Tenor	*I"Superius
*I'T	*I'S
*>[A,B,C,D,E,F,G]	*>[A,B,C,D,E,F,G]
*>A	*>A
*clefGv2	*clefG2
*k[]	*k[]
*M2/1	*M2/1
*met(C)	*met(C)
=1-	=1-
!!LO:TX:Z=8:t=Choir 1
!!section: Neque elati
!!!OMD: Neque elati
1A	1a
2c\	2a/
2c\	2a/
=2	=2
2c\	2a/
2c\	2a/
1c	1a
=3	=3
2B\	2g/
2A/	2f/
2G/	2e/
[2A/	[2f/
=4	=4
2A/]	2f/]
4G/	4e/
4F/	4d/
2E/	2c/
2D/	[2d/
=5	=5
1E	2d/]
.	2c#i/
1Dl	1dl
=6||	=6||
*>B	*>B
!!section: Neque ambulavi
!!!OMD: Neque ambulavi
!!LO:TX:Z=8:t=Choir 2
1A	1a
1c	1a
=7	=7
2c\	2a/
2c\	2a/
2c\	2a/
2c\	2a/
=8	=8
2c\	2a/
2c\	2a/
1A	1a
=9	=9
1r	1r
1c	1a
=10	=10
1c	1a
2B\	2g/
2A/	2f/
=11	=11
2B\	2g/
1c	1a
2B\	2g/
=12	=12
2A/	2f/
2G/	2.e/
2A/	.
.	4d/
2F/	[2d/
=13	=13
1E	2d/]
.	2c#i/
1Dl	1dl
=14||	=14||
*>C	*>C
!!LO:TX:Z=8:t=Choir 1
!!section: Si non humiliter
!!!OMD: Si non humiliter
1A	1a
2c\	2a/
2c\	2a/
=15	=15
2c\	2a/
2c\	2a/
1c	1a
=16	=16
2c\	2a/
2c\	2a/
1c	1a
=17	=17
1A	1a
1r	1r
=18	=18
1c	1a
2c\	2a/
2c\	2a/
=19	=19
1B	1g
1A	1f
=20	=20
2B\	2g/
2c\	1a
1A	.
.	4g/
.	4f/
=21	=21
2G/	2e/
1A	1f
4G/	4e/
4F/	4d/
=22	=22
2E/	2c/
2D/	1d
1E	.
.	2c#i/
=23	=23
1Dl	1dl
1r	1r
=24||	=24||
*>D	*>D
!!section: Sicut ablactatus
!!!OMD: Sicut ablactatus
!!LO:TX:Z=8:t=Choir 2
2A/	2a/
2A/	2a/
2c\	2a/
2c\	2a/
=25	=25
2c\	2a/
2c\	2a/
1c	1a
=26	=26
2c\	2a/
2c\	2a/
2c\	2a/
2c\	2a/
=27	=27
1c	1a
1A	1a
=28	=28
1r	1r
2c\	2a/
2c\	2a/
=29	=29
1c	1a
2B\	2g/
2A/	2f/
=30	=30
2B\	2g/
1c	1a
2B\	2g/
=31	=31
2A/	2f/
2G/	2.e/
2A/	.
.	4d/
2F/	[2d/
=32	=32
1E	2d/]
.	2c#i/
1Dl	1dl
=33||	=33||
*>E	*>E
!!section: Speret Israel
!!!OMD: Speret Israel
!!LO:TX:Z=8:t=Choir 1
2A/	2a/
2A/	2a/
2c\	2a/
2c\	2a/
=34	=34
2c\	2a/
2c\	2a/
2c\	2a/
2c\	2a/
=35	=35
1A	1a
1r	1r
=36	=36
2c\	2a/
2c\	2a/
1c	1a
=37	=37
2B\	2g/
2A/	2f/
2G/	2e/
[2A/	[2f/
=38	=38
2A/]	4f/]
.	4e/
2F/	1d
1E	.
.	2c#i/
=39	=39
1Dl	1dl
1r	1r
=40||	=40||
*>F	*>F
!!LO:TX:Z=8:t=Choir 2
!!section: Gloria Patri
!!!OMD: Gloria Patri
1A	1a
2c\	2a/
2c\	2a/
=41	=41
1c	1a
2c\	2a/
2c\	2a/
=42	=42
2c\	2a/
2c\	2a/
1A	1a
=43	=43
1r	1r
1c	1a
=44	=44
2B\	2g/
2G/	2e/
2A/	2f/
2B\	[2g/
=45	=45
2G/	2g/]
2A/	2f/
2F/	2d/
[2G/	[2e/
=46	=46
4G/]	4e/]
4F/	4d/
4E/	4c#i/
4D/	4B/
1E	1c#i
=47	=47
1Dl	1dl
1r	1r
=48||	=48||
*>G	*>G
!!LO:TX:Z=8:t=Choir 1
!!section: Sicut erat
!!!OMD: Sicut erat
2A/	2a/
2A/	2a/
2c\	2a/
2c\	2a/
=49	=49
2c\	2a/
2c\	2a/
2c\	2a/
2c\	2a/
=50	=50
1A	1a
1c	1a
=51	=51
2B\	2g/
2c\	2a/
2d\	2b\
2c\	[2cc\
=52	=52
1A	4cc\]
.	4b\
.	1a
1B	.
.	2g#i/
=53	=53
1A	1a
1r	1r
=54	=54
2c\	2a/
2c\	2a/
2c\	2a/
2c\	2a/
=55	=55
1c	1a
2B\	2g/
2A/	2f/
=56	=56
2G/	2e/
1A	1f
4G/	4e/
4F/	4d/
=57	=57
2E/	2c/
2D/	1d
1E	.
.	2c#i/
=58	=58
1Dl	1dl
1r	1r
==	==
*-	*-
!!!RDF**kern: l=long note in original notation
!!!RDF**kern: i=editorial accidental
!!!ENC:	Chris Gage 02-10-2014
!!!END:	2014/06/20/
!!!EED:	Jesse Rodin
!!!EEV:	2014/10/17/
!!!ONB:	Translated from MusicXML and edited on 2014/10/17/ by Craig Sapp
!!muse2ps: C^@{COM}^i2I150v85,150Q16
